ic_joined_party.svg

<?xml version="1.0" encoding="UTF-8" standalone="no"?>
<svg
   xmlns:dc="http://purl.org/dc/elements/1.1/"
   xmlns:cc="http://creativecommons.org/ns#"
   xmlns:rdf="http://www.w3.org/1999/02/22-rdf-syntax-ns#"
   xmlns:svg="http://www.w3.org/2000/svg"
   xmlns="http://www.w3.org/2000/svg"
   xmlns:sodipodi="http://sodipodi.sourceforge.net/DTD/sodipodi-0.dtd"
   xmlns:inkscape="http://www.inkscape.org/namespaces/inkscape"
   version="1.1"
   id="svg2"
   viewBox="0 0 24.000001 24.000001"
   height="24"
   width="24"
   inkscape:version="0.91 r13725"
   sodipodi:docname="ic_joined_party.svg"
   inkscape:label="Elements">
  <sodipodi:namedview
     pagecolor="#ffffff"
     bordercolor="#666666"
     borderopacity="1"
     objecttolerance="10"
     gridtolerance="10"
     guidetolerance="10"
     inkscape:pageopacity="0"
     inkscape:pageshadow="2"
     inkscape:window-width="1680"
     inkscape:window-height="987"
     id="namedview7"
     showgrid="true"
     inkscape:zoom="32"
     inkscape:cx="13.984373"
     inkscape:cy="14.383565"
     inkscape:window-x="-8"
     inkscape:window-y="-8"
     inkscape:window-maximized="1"
     inkscape:current-layer="layer1"
     units="px"
     inkscape:object-paths="true"
     inkscape:object-nodes="true"
     showguides="true">
    <inkscape:grid
       type="xygrid"
       id="grid4134"
       units="px"
       spacingx="1"
       spacingy="1" />
  </sodipodi:namedview>
  <defs
     id="defs4" />
  <metadata
     id="metadata7">
    <rdf:RDF>
      <cc:Work
         rdf:about="">
        <dc:format>image/svg+xml</dc:format>
        <dc:type
           rdf:resource="http://purl.org/dc/dcmitype/StillImage" />
        <dc:title />
      </cc:Work>
    </rdf:RDF>
  </metadata>
  <g
     inkscape:groupmode="layer"
     id="layer1"
     inkscape:label="Elements"
     style="display:inline">
    <path
       id="path4393"
       d="M 9,4 A 5.0000002,5.0000002 0 0 0 4,9 5.0000002,5.0000002 0 0 0 9,14 5.0000002,5.0000002 0 0 0 14,9 5.0000002,5.0000002 0 0 0 9,4 Z M 7.5,6 A 1.4999999,1.4999999 0 0 1 9,7.5 1.4999999,1.4999999 0 0 1 7.5,9 1.4999999,1.4999999 0 0 1 6,7.5 1.4999999,1.4999999 0 0 1 7.5,6 Z"
       style="color:#000000;clip-rule:nonzero;display:inline;overflow:visible;visibility:visible;opacity:1;isolation:auto;mix-blend-mode:normal;color-interpolation:sRGB;color-interpolation-filters:linearRGB;solid-color:#000000;solid-opacity:1;fill:#000000;fill-rule:nonzero;stroke:none;stroke-width:0.1;stroke-linecap:butt;stroke-linejoin:miter;stroke-miterlimit:4;stroke-dasharray:none;stroke-dashoffset:0;stroke-opacity:1;marker:none;marker-start:none;marker-mid:none;marker-end:none;color-rendering:auto;image-rendering:auto;shape-rendering:auto;text-rendering:auto;enable-background:accumulate"
       inkscape:connector-curvature="0" />
    <path
       inkscape:connector-curvature="0"
       id="path4395"
       d="m 10,12.000001 4,4 1,0 0,1 1,1 1,0 0,1 1,1 2,0 0,-2 -7,-6.999999 z"
       style="fill:#000000;fill-rule:evenodd;stroke:none;stroke-width:1px;stroke-linecap:butt;stroke-linejoin:miter;stroke-opacity:1"
       sodipodi:nodetypes="cccccccccccc" />
  </g>
  <g
     inkscape:groupmode="layer"
     id="layer2"
     inkscape:label="Fused"
     style="display:none">
    <path
       style="color:#000000;clip-rule:nonzero;display:inline;overflow:visible;visibility:visible;opacity:1;isolation:auto;mix-blend-mode:normal;color-interpolation:sRGB;color-interpolation-filters:linearRGB;solid-color:#000000;solid-opacity:1;fill:#000000;fill-opacity:1;fill-rule:nonzero;stroke:none;stroke-width:0.1;stroke-linecap:butt;stroke-linejoin:miter;stroke-miterlimit:4;stroke-dasharray:none;stroke-dashoffset:0;stroke-opacity:1;marker:none;marker-start:none;marker-mid:none;marker-end:none;color-rendering:auto;image-rendering:auto;shape-rendering:auto;text-rendering:auto;enable-background:accumulate"
       d="m 9,4 a 4.9999999,4.9999999 0 0 0 -5,5 4.9999999,4.9999999 0 0 0 5,5 4.9999999,4.9999999 0 0 0 2.390625,-0.609375 L 14,16 l 1,0 0,1 1,1 1,0 0,1 1,1 2,0 0,-2 -6.613281,-6.613281 A 4.9999999,4.9999999 0 0 0 14,9 4.9999999,4.9999999 0 0 0 9,4 Z M 7.5,6 A 1.4999998,1.4999998 0 0 1 9,7.5 1.4999998,1.4999998 0 0 1 7.5,9 1.4999998,1.4999998 0 0 1 6,7.5 1.4999998,1.4999998 0 0 1 7.5,6 Z"
       id="path3334"
       inkscape:connector-curvature="0" />
  </g>
</svg>

<?xml version="1.0" encoding="UTF-8" standalone="no"?>
<svg
   xmlns:dc="http://purl.org/dc/elements/1.1/"
   xmlns:cc="http://creativecommons.org/ns#"
   xmlns:rdf="http://www.w3.org/1999/02/22-rdf-syntax-ns#"
   xmlns:svg="http://www.w3.org/2000/svg"
   xmlns="http://www.w3.org/2000/svg"
   xmlns:sodipodi="http://sodipodi.sourceforge.net/DTD/sodipodi-0.dtd"
   xmlns:inkscape="http://www.inkscape.org/namespaces/inkscape"
   version="1.1"
   id="svg2"
   viewBox="0 0 24.000001 24.000001"
   height="24"
   width="24"
   inkscape:version="0.91 r13725"
   sodipodi:docname="ic_joined_party.svg">
  <sodipodi:namedview
     pagecolor="#ffffff"
     bordercolor="#666666"
     borderopacity="1"
     objecttolerance="10"
     gridtolerance="10"
     guidetolerance="10"
     inkscape:pageopacity="0"
     inkscape:pageshadow="2"
     inkscape:window-width="1680"
     inkscape:window-height="987"
     id="namedview7"
     showgrid="true"
     inkscape:zoom="22.627417"
     inkscape:cx="14.929972"
     inkscape:cy="13.556841"
     inkscape:window-x="-8"
     inkscape:window-y="-8"
     inkscape:window-maximized="1"
     inkscape:current-layer="svg2"
     units="px"
     inkscape:object-paths="true"
     inkscape:object-nodes="true">
    <inkscape:grid
       type="xygrid"
       id="grid4134"
       units="px"
       spacingx="1"
       spacingy="1" />
  </sodipodi:namedview>
  <defs
     id="defs4" />
  <metadata
     id="metadata7">
    <rdf:RDF>
      <cc:Work
         rdf:about="">
        <dc:format>image/svg+xml</dc:format>
        <dc:type
           rdf:resource="http://purl.org/dc/dcmitype/StillImage" />
        <dc:title />
      </cc:Work>
    </rdf:RDF>
  </metadata>
  <path
     style="color:#000000;clip-rule:nonzero;display:inline;overflow:visible;visibility:visible;opacity:1;isolation:auto;mix-blend-mode:normal;color-interpolation:sRGB;color-interpolation-filters:linearRGB;solid-color:#000000;solid-opacity:1;fill:#000000;fill-opacity:1;fill-rule:nonzero;stroke:none;stroke-width:0.1;stroke-linecap:butt;stroke-linejoin:miter;stroke-miterlimit:4;stroke-dasharray:none;stroke-dashoffset:0;stroke-opacity:1;marker:none;marker-start:none;marker-mid:none;marker-end:none;color-rendering:auto;image-rendering:auto;shape-rendering:auto;text-rendering:auto;enable-background:accumulate"
     d="M 9 4 A 4.9999993 4.9999993 0 0 0 4 9 A 4.9999993 4.9999993 0 0 0 9 14 A 4.9999993 4.9999993 0 0 0 11.390625 13.390625 L 14 16 L 15 16 L 15 17 L 16 18 L 17 18 L 17 19 L 18 20 L 20 20 L 20 18 L 13.386719 11.386719 A 4.9999993 4.9999993 0 0 0 14 9 A 4.9999993 4.9999993 0 0 0 9 4 z M 7.5 6 A 1.4999996 1.4999996 0 0 1 9 7.5 A 1.4999996 1.4999996 0 0 1 7.5 9 A 1.4999996 1.4999996 0 0 1 6 7.5 A 1.4999996 1.4999996 0 0 1 7.5 6 z "
     id="path4137" />
</svg>
